X: 103
T: Benton's Dream
R:reel
Z:
M:C|
L:1/8
K:Amix
e2 \
|:"A"[a6c6] e2 | "G"[g6B6] f2 | "A"e3f "E7"edcB | "A"A3c "E7"BA^GB |
| "A"A2 F2 EFAB | "E"=cBcB AFEF | "A"A3A- "E"AcB^G |[1 "A"A3A- Ace^g :|[2 "A"A6 ||
|: F2 \
| "G"G2BG AGBG | AB-BA B2D2 | G2BG AGBG | AB-BA B2B2 |
| "A"A3A- Ace^g | a2 a2 =gecB | A3c "E"BA^GB |[1 "A"A6 :|[2 "A"HA3A- Ace^g |]

%%newpage

